icon-themes/breeze_svg/cmd/32/autocontrolfocus.svg

<?xml version="1.0" encoding="UTF-8" standalone="no"?>
<!-- Created with Inkscape (http://www.inkscape.org/) -->

<svg
   xmlns:dc="http://purl.org/dc/elements/1.1/"
   xmlns:cc="http://creativecommons.org/ns#"
   xmlns:rdf="http://www.w3.org/1999/02/22-rdf-syntax-ns#"
   xmlns:svg="http://www.w3.org/2000/svg"
   xmlns="http://www.w3.org/2000/svg"
   xmlns:sodipodi="http://sodipodi.sourceforge.net/DTD/sodipodi-0.dtd"
   xmlns:inkscape="http://www.inkscape.org/namespaces/inkscape"
   width="32"
   height="32"
   id="svg5453"
   version="1.1"
   inkscape:version="0.91 r13725"
   sodipodi:docname="autocontrolfocus.svg"
   viewBox="0 0 32 32">
  <defs
     id="defs5455" />
  <sodipodi:namedview
     id="base"
     pagecolor="#ffffff"
     bordercolor="#666666"
     borderopacity="1.0"
     inkscape:pageopacity="0"
     inkscape:pageshadow="2"
     inkscape:zoom="22.627417"
     inkscape:cx="24.747549"
     inkscape:cy="10.797692"
     inkscape:document-units="px"
     inkscape:current-layer="layer1"
     showgrid="true"
     fit-margin-top="0"
     fit-margin-left="0"
     fit-margin-right="0"
     fit-margin-bottom="0"
     inkscape:window-width="1883"
     inkscape:window-height="1051"
     inkscape:window-x="33"
     inkscape:window-y="0"
     inkscape:window-maximized="1"
     inkscape:showpageshadow="false"
     borderlayer="true"
     showguides="true"
     inkscape:guide-bbox="true"
     inkscape:object-nodes="true"
     inkscape:snap-bbox="true"
     inkscape:snap-global="true">
    <inkscape:grid
       type="xygrid"
       id="grid4063" />
    <sodipodi:guide
       position="4,24"
       orientation="28,0"
       id="guide4280" />
    <sodipodi:guide
       position="13,4"
       orientation="0,28"
       id="guide4282" />
    <sodipodi:guide
       position="28,25"
       orientation="-28,0"
       id="guide4284" />
    <sodipodi:guide
       position="15,28"
       orientation="0,-28"
       id="guide4286" />
  </sodipodi:namedview>
  <metadata
     id="metadata5458">
    <rdf:RDF>
      <cc:Work
         rdf:about="">
        <dc:format>image/svg+xml</dc:format>
        <dc:type
           rdf:resource="http://purl.org/dc/dcmitype/StillImage" />
        <dc:title></dc:title>
      </cc:Work>
    </rdf:RDF>
  </metadata>
  <g
     inkscape:label="Capa 1"
     inkscape:groupmode="layer"
     id="layer1"
     transform="translate(-384.57143,-515.798)">
    <circle
       r="0"
       cy="-509.56406"
       cx="389.57144"
       id="circle16" />
    <path
       style="fill:#4d4d4d;fill-opacity:1;stroke:none;stroke-width:2;stroke-linecap:butt;stroke-linejoin:round;stroke-miterlimit:4;stroke-dasharray:none"
       d="m 4,4 0,24 15,0 0,-1 -14,0 0,-18 22,0 0,9 1,0 0,-14 z"
       transform="translate(384.57143,515.798)"
       id="rect4687"
       inkscape:connector-curvature="0"
       sodipodi:nodetypes="ccccccccccc" />
    <path
       style="fill:#4d4d4d;fill-rule:evenodd;stroke:none"
       d="M 20.013672 18.009766 L 20.017578 28 L 23.207031 23.900391 L 28 23.900391 L 20.013672 18.009766 z "
       transform="translate(384.57143,515.798)"
       id="path4185" />
  </g>
</svg>

<svg xmlns="http://www.w3.org/2000/svg" viewBox="0 0 32 32">
 <path 
     style="fill:#4d4d4d" 
     d="M 4 4 L 4 28 L 19 28 L 19 27 L 5 27 L 5 9 L 27 9 L 27 18 L 28 18 L 28 4 L 4 4 z M 20.013672 18.009766 L 20.017578 28 L 23.207031 23.900391 L 28 23.900391 L 20.013672 18.009766 z "
     />
</svg>
